src/images/plate.svg

<svg xmlns="http://www.w3.org/2000/svg" xml:space="preserve" id="Слой_1" x="0" y="0" style="enable-background:new 0 0 99.2 77.6" version="1.1" viewBox="0 0 99.2 77.6"><style>.st0{fill:#264f26}</style><g id="Слой_2_00000130632802746917363330000008089856071122461589_"><g id="Слой_1-2"><path d="M88.7 39.7c0 15.1-9.1 28.8-23 34.7C41 84.8 13.5 66.5 13.5 39.7S41-5.4 65.7 5c13.9 5.9 23 19.6 23 34.7zm0 0c0-15.1-9.1-28.7-23.1-34.4-24.3-9.9-51.2 8.2-51.1 34.4-.1 26.2 26.8 44.3 51.1 34.4 14-5.8 23.1-19.3 23.1-34.4z" class="st0"/><path d="M74.8 39.7c0 21-25.4 31.6-40.4 16.9-9.4-9-9.4-24.8 0-33.8 15.1-14.7 40.4-4 40.4 16.9zm0 0C74.7 19 49.6 8.7 35 23.4c-8.9 8.6-8.9 24 0 32.6 14.6 14.7 39.7 4.4 39.8-16.3zM8.8 23.7c.4 18 .4 35.9.5 53.9H3.7v-.5c0-17.8.1-35.6.5-53.4.4 17.8.4 35.6.5 53.4l-.5-.5h4.7l-.5.5c-.1-17.8 0-35.6.4-53.4z" class="st0"/><path d="M5 24.3C-1.6 22.4 0 11.6.7 6.4 1 4.2 1.5 2.1 2.3 0c-.2 1.1-.4 2.2-.5 3.2C1.4 8.6-1.1 21.8 5 24.3zM8 24.3c6.1-2.5 3.6-15.6 3.2-21-.1-1.1-.3-2.2-.5-3.2.7 2.1 1.3 4.2 1.6 6.4.7 5.1 2.3 15.9-4.3 17.8z" class="st0"/><path d="M5.1 0c-.2 5.2-.7 10.4-1.2 15.6h-1c-.2-2.6-.4-5.2-.4-7.8-.1-2.3-.3-5.5-.2-7.8.3 2.2.7 5.5.9 7.8.3 2.6.5 5.2.7 7.8h-1C3.5 10.3 4.2 5.1 5.1 0zM7.9 0c-.2 5.2-.6 10.4-1.2 15.6h-1c-.2-2.6-.3-5.2-.4-7.8-.1-2.3-.2-5.5-.2-7.8.3 2.2.7 5.5.9 7.8.3 2.6.5 5.2.7 7.8h-1C6.3 10.3 7 5.1 7.9 0zM10.7 0c-.2 5.2-.6 10.4-1.2 15.6h-1c-.1-2.6-.3-5.2-.4-7.8C8 5.5 7.9 2.3 7.9 0c.4 2.2.7 5.5 1 7.8.3 2.6.5 5.2.7 7.8h-1C9.1 10.3 9.8 5.1 10.7 0zM98.7 0c-2 3.7-4.2 7.3-5.3 11.4-1.1 4.1-1.4 8.3-.7 12.5l2.1 9v.1c.1 14.7.1 29.4.2 44.2l-.5-.5h4.3l-.5.5c-.1-24.9.3-52.2.4-77.2zm0 0c.1 25 .5 52.1.5 77.1v.5H94v-.5c.1-14.6 0-29.8.2-44.1l-2-9c-.9-6.4.3-12.8 3.4-18.5L98.7 0z" class="st0"/></g></g></svg>

<?xml version="1.0" encoding="utf-8"?>
<!-- Generator: Adobe Illustrator 27.0.0, SVG Export Plug-In . SVG Version: 6.00 Build 0)  -->
<svg version="1.1" id="Слой_1" xmlns="http://www.w3.org/2000/svg" xmlns:xlink="http://www.w3.org/1999/xlink" x="0px" y="0px"
	 viewBox="0 0 99.2 77.6" style="enable-background:new 0 0 99.2 77.6;" xml:space="preserve">
<style type="text/css">
	.st0{fill:#264F26;}
</style>
<g id="Слой_2_00000130632802746917363330000008089856071122461589_">
	<g id="Слой_1-2">
		<path class="st0" d="M88.7,39.7c0,15.1-9.1,28.8-23,34.7C41,84.8,13.5,66.5,13.5,39.7S41-5.4,65.7,5
			C79.6,10.9,88.7,24.6,88.7,39.7L88.7,39.7z M88.7,39.7C88.7,24.6,79.6,11,65.6,5.3c-24.3-9.9-51.2,8.2-51.1,34.4
			C14.4,65.9,41.3,84,65.6,74.1C79.6,68.3,88.7,54.8,88.7,39.7z"/>
		<path class="st0" d="M74.8,39.7c0,21-25.4,31.6-40.4,16.9c-9.4-9-9.4-24.8,0-33.8C49.5,8.1,74.8,18.8,74.8,39.7z M74.8,39.7
			c-0.1-20.7-25.2-31-39.8-16.3c-8.9,8.6-8.9,24,0,32.6C49.6,70.7,74.7,60.4,74.8,39.7z"/>
		<path class="st0" d="M8.8,23.7c0.4,18,0.4,35.9,0.5,53.9H3.7v-0.5c0-17.8,0.1-35.6,0.5-53.4c0.4,17.8,0.4,35.6,0.5,53.4l-0.5-0.5
			h4.7l-0.5,0.5C8.3,59.3,8.4,41.5,8.8,23.7z"/>
		<path class="st0" d="M5,24.3c-6.6-1.9-5-12.7-4.3-17.9C1,4.2,1.5,2.1,2.3,0C2.1,1.1,1.9,2.2,1.8,3.2C1.4,8.6-1.1,21.8,5,24.3
			L5,24.3z"/>
		<path class="st0" d="M8,24.3c6.1-2.5,3.6-15.6,3.2-21c-0.1-1.1-0.3-2.2-0.5-3.2c0.7,2.1,1.3,4.2,1.6,6.4C13,11.6,14.6,22.4,8,24.3
			z"/>
		<path class="st0" d="M5.1,0C4.9,5.2,4.4,10.4,3.9,15.6h-1C2.7,13,2.5,10.4,2.5,7.8C2.4,5.5,2.2,2.3,2.3,0C2.6,2.2,3,5.5,3.2,7.8
			c0.3,2.6,0.5,5.2,0.7,7.8h-1C3.5,10.3,4.2,5.1,5.1,0z"/>
		<path class="st0" d="M7.9,0C7.7,5.2,7.3,10.4,6.7,15.6h-1C5.5,13,5.4,10.4,5.3,7.8C5.2,5.5,5.1,2.3,5.1,0C5.4,2.2,5.8,5.5,6,7.8
			c0.3,2.6,0.5,5.2,0.7,7.8h-1C6.3,10.3,7,5.1,7.9,0z"/>
		<path class="st0" d="M10.7,0c-0.2,5.2-0.6,10.4-1.2,15.6h-1C8.4,13,8.2,10.4,8.1,7.8C8,5.5,7.9,2.3,7.9,0c0.4,2.2,0.7,5.5,1,7.8
			c0.3,2.6,0.5,5.2,0.7,7.8h-1C9.1,10.3,9.8,5.1,10.7,0z"/>
		<path class="st0" d="M98.7,0c-2,3.7-4.2,7.3-5.3,11.4c-1.1,4.1-1.4,8.3-0.7,12.5l2.1,9c0,0,0,0.1,0,0.1
			c0.1,14.7,0.1,29.4,0.2,44.2l-0.5-0.5h4.3l-0.5,0.5C98.2,52.3,98.6,25,98.7,0L98.7,0z M98.7,0c0.1,25,0.5,52.1,0.5,77.1v0.5H94
			v-0.5c0.1-14.6,0-29.8,0.2-44.1l-2-9c-0.9-6.4,0.3-12.8,3.4-18.5L98.7,0z"/>
	</g>
</g>
</svg>
